;Generated by Cura LulzBot Edition GCodeWriter Version: 3.6.3
;FLAVOR:Marlin
;TIME:2644
;Filament used: 2.22502m
;Layer height: 0.38
;Generated with Cura_SteamEngine 3.6.3
M82 ;absolute extrusion mode
M221 S100
;This G-Code has been generated specifically for the LulzBot TAZ 6 with standard extruder
M73 P0 ; clear GLCD progress bar
M75 ; start GLCD timer
G26 ; clear potential 'probe fail' condition
M107 ; disable fans
M420 S0 ; disable previous leveling matrix
G90 ; absolute positioning
M82 ; set extruder to absolute mode
G92 E0 ; set extruder position to 0
M140 S60 ; start bed heating up
M109 R140 ; soften filament before homing Z
G28 ; Home all axis
G1 E-30 F100 ; retract filament
M109 R140 ; wait for extruder to reach wiping temp
G1 X-15 Y100 F3000 ; move above wiper pad
G1 Z1 ; push nozzle into wiper
G1 X-17 Y95 F1000 ; slow wipe
G1 X-17 Y90 F1000 ; slow wipe
G1 X-17 Y85 F1000 ; slow wipe
G1 X-15 Y90 F1000 ; slow wipe
G1 X-17 Y80 F1000 ; slow wipe
G1 X-15 Y95 F1000 ; slow wipe
G1 X-17 Y75 F2000 ; fast wipe
G1 X-15 Y65 F2000 ; fast wipe
G1 X-17 Y70 F2000 ; fast wipe
G1 X-15 Y60 F2000 ; fast wipe
G1 X-17 Y55 F2000 ; fast wipe
G1 X-15 Y50 F2000 ; fast wipe
G1 X-17 Y40 F2000 ; fast wipe
G1 X-15 Y45 F2000 ; fast wipe
G1 X-17 Y35 F2000 ; fast wipe
G1 X-15 Y40 F2000 ; fast wipe
G1 X-17 Y70 F2000 ; fast wipe
G1 X-15 Y30 Z2 F2000 ; fast wipe
G1 X-17 Y35 F2000 ; fast wipe
G1 X-15 Y25 F2000 ; fast wipe
G1 X-17 Y30 F2000 ; fast wipe
G1 X-15 Y25 Z1.5 F1000 ; slow wipe
G1 X-17 Y23 F1000 ; slow wipe
G1 Z10 ; raise extruder
M109 R140 ; wait for extruder to reach probe temp
G1 X-9 Y-9 ; move above first probe point
M204 S100 ; set probing acceleration
G29 ; start auto-leveling sequence
M420 S1 ; activate bed level matrix
M425 Z			     ; use measured Z backlash for compensation
M425 Z F0		     ; turn off measured Z backlash compensation. (if activated in the quality settings, this command will automatically be ignored)
M204 S500 ; restore standard acceleration
G1 X0 Y0 Z15 F5000 ; move up off last probe point
G4 S1 ; pause
M400 ; wait for moves to finish
M117 Heating... ; progress indicator message on LCD
M109 R210 ; wait for extruder to reach printing temp
M190 S60 ; wait for bed to reach printing temp
G1 Z2 E0 F75 ; prime tiny bit of filament into the nozzle
M117 TAZ 6 Printing... ; progress indicator message on LCD

G92 E0
G1 F600 E-1
;LAYER_COUNT:53
;LAYER:0
M107
G0 F2625 X101.709 Y92.713 Z0.425
;TYPE:SKIRT
G1 F600 E0
G1 F900 X102.096 Y92.381 E0.01698
G1 X102.531 Y92.115 E0.03397
G1 X103.001 Y91.919 E0.05093
G1 X103.496 Y91.8 E0.06789
G1 X104.009 Y91.759 E0.08503
G1 X123.991 Y91.76 E0.75064
G1 X124.499 Y91.8 E0.76761
G1 X124.995 Y91.919 E0.78461
G1 X125.465 Y92.114 E0.80156
G1 X125.9 Y92.38 E0.81854
G1 X126.288 Y92.71 E0.83551
G1 X126.619 Y93.098 E0.85249
G1 X126.885 Y93.532 E0.86945
G1 X127.081 Y94.002 E0.88641
G1 X127.2 Y94.498 E0.9034
G1 X127.241 Y95.01 E0.92051
G1 X127.241 Y194.991 E4.25092
G1 X127.201 Y195.499 E4.26789
G1 X127.082 Y195.994 E4.28485
G1 X126.887 Y196.465 E4.30183
G1 X126.621 Y196.9 E4.31881
G1 X126.291 Y197.287 E4.33576
G1 X125.904 Y197.619 E4.35274
G1 X125.469 Y197.885 E4.36973
G1 X124.999 Y198.081 E4.38669
G1 X124.504 Y198.2 E4.40365
G1 X123.991 Y198.241 E4.42079
G1 X104.009 Y198.241 E5.0864
G1 X103.501 Y198.201 E5.10337
G1 X103.006 Y198.082 E5.12033
G1 X102.535 Y197.887 E5.13731
G1 X102.1 Y197.621 E5.15429
G1 X101.713 Y197.291 E5.17124
G1 X101.381 Y196.904 E5.18822
G1 X101.115 Y196.469 E5.2052
G1 X100.919 Y195.999 E5.22217
G1 X100.8 Y195.504 E5.23913
G1 X100.759 Y194.991 E5.25627
G1 X100.759 Y95.009 E8.58671
G1 X100.799 Y94.501 E8.60368
G1 X100.918 Y94.006 E8.62064
G1 X101.113 Y93.535 E8.63762
G1 X101.379 Y93.1 E8.6546
G1 X101.709 Y92.713 E8.67154
G1 F600 E7.67154
;MESH:
G0 F2625 X103.335 Y95.764
G0 X104.764 Y95.764
G0 X123.18 Y194.18
G0 X123.25 Y194.25
;TYPE:WALL-INNER
G1 F600 E8.67154
G1 F900 X104.75 Y194.25 E9.28779
G1 X104.75 Y95.75 E12.56886
G1 X123.25 Y95.75 E13.1851
G1 X123.25 Y194.25 E16.46617
G0 F2625 X123.75 Y194.75
;TYPE:WALL-OUTER
G1 F900 X104.25 Y194.75 E17.11572
G1 X104.25 Y95.25 E20.4301
G1 X123.75 Y95.25 E21.07965
G1 X123.75 Y194.75 E24.39403
G0 F2625 X123.5 Y194.75
G0 X123.18 Y194.18
G0 X122.76 Y193.76
;TYPE:SKIN
G1 F900 X105.24 Y193.76 E24.97763
G1 X105.24 Y96.24 E28.22606
G1 X122.76 Y96.24 E28.80966
G1 X122.76 Y193.76 E32.05808
G0 F2625 X105.852 Y193.533
G1 F900 X105.464 Y193.145 E32.07636
G0 F2625 X105.464 Y192.438
G1 F900 X106.559 Y193.533 E32.12794
G0 F2625 X107.266 Y193.533
G1 F900 X105.464 Y191.731 E32.21283
G0 F2625 X105.464 Y191.024
G1 F900 X107.973 Y193.533 E32.33103
G0 F2625 X108.68 Y193.533
G1 F900 X105.464 Y190.317 E32.48252
G0 F2625 X105.464 Y189.609
G1 F900 X109.388 Y193.533 E32.66738
G0 F2625 X110.095 Y193.533
G1 F900 X105.464 Y188.902 E32.88553
G0 F2625 X105.464 Y188.195
G1 F900 X110.802 Y193.533 E33.137
G0 F2625 X111.509 Y193.533
G1 F900 X105.464 Y187.488 E33.42176
G0 F2625 X105.464 Y186.781
G1 F900 X112.216 Y193.533 E33.73984
G0 F2625 X112.923 Y193.533
G1 F900 X105.464 Y186.074 E34.09121
G0 F2625 X105.464 Y185.367
G1 F900 X113.63 Y193.533 E34.4759
G0 F2625 X114.337 Y193.533
G1 F900 X105.464 Y184.66 E34.89389
G0 F2625 X105.464 Y183.953
G1 F900 X115.044 Y193.533 E35.34518
G0 F2625 X115.751 Y193.533
G1 F900 X105.464 Y183.246 E35.82978
G0 F2625 X105.464 Y182.538
G1 F900 X116.459 Y193.533 E36.34773
G0 F2625 X117.166 Y193.533
G1 F900 X105.464 Y181.831 E36.89899
G0 F2625 X105.464 Y181.124
G1 F900 X117.873 Y193.533 E37.48355
G0 F2625 X118.58 Y193.533
G1 F900 X105.464 Y180.417 E38.10142
G0 F2625 X105.464 Y179.71
G1 F900 X119.287 Y193.533 E38.75259
G0 F2625 X119.994 Y193.533
G1 F900 X105.464 Y179.003 E39.43707
G0 F2625 X105.464 Y178.296
G1 F900 X120.701 Y193.533 E40.15486
G0 F2625 X121.408 Y193.533
G1 F900 X105.464 Y177.589 E40.90595
G0 F2625 X105.464 Y176.882
G1 F900 X122.115 Y193.533 E41.69034
G0 F2625 X122.535 Y193.245
G1 F900 X105.464 Y176.174 E42.49452
G0 F2625 X105.464 Y175.467
G1 F900 X122.535 Y192.538 E43.2987
G0 F2625 X122.535 Y191.831
G1 F900 X105.464 Y174.76 E44.10288
G0 F2625 X105.464 Y174.053
G1 F900 X122.535 Y191.124 E44.90706
G0 F2625 X122.535 Y190.417
G1 F900 X105.464 Y173.346 E45.71124
G0 F2625 X105.464 Y172.639
G1 F900 X122.535 Y189.71 E46.51542
G0 F2625 X122.535 Y189.003
G1 F900 X105.464 Y171.932 E47.3196
G0 F2625 X105.464 Y171.225
G1 F900 X122.535 Y188.296 E48.12378
G0 F2625 X122.535 Y187.589
G1 F900 X105.464 Y170.518 E48.92796
G0 F2625 X105.464 Y169.81
G1 F900 X122.535 Y186.881 E49.73214
G0 F2625 X122.535 Y186.174
G1 F900 X105.464 Y169.103 E50.53632
G0 F2625 X105.464 Y168.396
G1 F900 X122.535 Y185.467 E51.3405
G0 F2625 X122.535 Y184.76
G1 F900 X105.464 Y167.689 E52.14468
G0 F2625 X105.464 Y166.982
G1 F900 X122.535 Y184.053 E52.94886
G0 F2625 X122.535 Y183.346
G1 F900 X105.464 Y166.275 E53.75304
G0 F2625 X105.464 Y165.568
G1 F900 X122.535 Y182.639 E54.55722
G0 F2625 X122.535 Y181.932
G1 F900 X105.464 Y164.861 E55.3614
G0 F2625 X105.464 Y164.154
G1 F900 X122.535 Y181.225 E56.16558
G0 F2625 X122.535 Y180.517
G1 F900 X105.464 Y163.447 E56.96974
G0 F2625 X105.464 Y162.739
G1 F900 X122.535 Y179.81 E57.77392
G0 F2625 X122.535 Y179.103
G1 F900 X105.464 Y162.032 E58.5781
G0 F2625 X105.464 Y161.325
G1 F900 X122.535 Y178.396 E59.38228
G0 F2625 X122.535 Y177.689
G1 F900 X105.464 Y160.618 E60.18646
G0 F2625 X105.464 Y159.911
G1 F900 X122.535 Y176.982 E60.99064
G0 F2625 X122.535 Y176.275
G1 F900 X105.464 Y159.204 E61.79482
G0 F2625 X105.464 Y158.497
G1 F900 X122.535 Y175.568 E62.599
G0 F2625 X122.535 Y174.861
G1 F900 X105.464 Y157.79 E63.40318
G0 F2625 X105.464 Y157.083
G1 F900 X122.535 Y174.154 E64.20736
G0 F2625 X122.535 Y173.446
G1 F900 X105.464 Y156.375 E65.01154
G0 F2625 X105.464 Y155.668
G1 F900 X122.535 Y172.739 E65.81572
G0 F2625 X122.535 Y172.032
G1 F900 X105.464 Y154.961 E66.6199
G0 F2625 X105.464 Y154.254
G1 F900 X122.535 Y171.325 E67.42408
G0 F2625 X122.535 Y170.618
G1 F900 X105.464 Y153.547 E68.22826
G0 F2625 X105.464 Y152.84
G1 F900 X122.535 Y169.911 E69.03244
G0 F2625 X122.535 Y169.204
G1 F900 X105.464 Y152.133 E69.83662
G0 F2625 X105.464 Y151.426
G1 F900 X122.535 Y168.497 E70.6408
G0 F2625 X122.535 Y167.79
G1 F900 X105.464 Y150.719 E71.44498
G0 F2625 X105.464 Y150.011
G1 F900 X122.535 Y167.082 E72.24916
G0 F2625 X122.535 Y166.375
G1 F900 X105.464 Y149.304 E73.05334
G0 F2625 X105.464 Y148.597
G1 F900 X122.535 Y165.668 E73.85752
G0 F2625 X122.535 Y164.961
G1 F900 X105.464 Y147.89 E74.6617
G0 F2625 X105.464 Y147.183
G1 F900 X122.535 Y164.254 E75.46588
G0 F2625 X122.535 Y163.547
G1 F900 X105.464 Y146.476 E76.27006
G0 F2625 X105.464 Y145.769
G1 F900 X122.535 Y162.84 E77.07424
G0 F2625 X122.535 Y162.133
G1 F900 X105.464 Y145.062 E77.87842
G0 F2625 X105.464 Y144.355
G1 F900 X122.535 Y161.426 E78.6826
G0 F2625 X122.535 Y160.719
G1 F900 X105.464 Y143.648 E79.48678
G0 F2625 X105.464 Y142.94
G1 F900 X122.535 Y160.011 E80.29096
G0 F2625 X122.535 Y159.304
G1 F900 X105.464 Y142.233 E81.09514
G0 F2625 X105.464 Y141.526
G1 F900 X122.535 Y158.597 E81.89932
G0 F2625 X122.535 Y157.89
G1 F900 X105.464 Y140.819 E82.7035
G0 F2625 X105.464 Y140.112
G1 F900 X122.535 Y157.183 E83.50768
G0 F2625 X122.535 Y156.476
G1 F900 X105.464 Y139.405 E84.31186
G0 F2625 X105.464 Y138.698
G1 F900 X122.535 Y155.769 E85.11604
G0 F2625 X122.535 Y155.062
G1 F900 X105.464 Y137.991 E85.92022
G0 F2625 X105.464 Y137.284
G1 F900 X122.535 Y154.355 E86.7244
G0 F2625 X122.535 Y153.647
G1 F900 X105.464 Y136.576 E87.52858
G0 F2625 X105.464 Y135.869
G1 F900 X122.535 Y152.94 E88.33276
G0 F2625 X122.535 Y152.233
G1 F900 X105.464 Y135.162 E89.13694
G0 F2625 X105.464 Y134.455
G1 F900 X122.535 Y151.526 E89.94112
G0 F2625 X122.535 Y150.819
G1 F900 X105.464 Y133.748 E90.7453
G0 F2625 X105.464 Y133.041
G1 F900 X122.535 Y150.112 E91.54948
G0 F2625 X122.535 Y149.405
G1 F900 X105.464 Y132.334 E92.35366
G0 F2625 X105.464 Y131.627
G1 F900 X122.535 Y148.698 E93.15784
G0 F2625 X122.535 Y147.991
G1 F900 X105.464 Y130.92 E93.96202
G0 F2625 X105.464 Y130.213
G1 F900 X122.535 Y147.283 E94.76618
G0 F2625 X122.535 Y146.576
G1 F900 X105.464 Y129.505 E95.57036
G0 F2625 X105.464 Y128.798
G1 F900 X122.535 Y145.869 E96.37454
G0 F2625 X122.535 Y145.162
G1 F900 X105.464 Y128.091 E97.17872
G0 F2625 X105.464 Y127.384
G1 F900 X122.535 Y144.455 E97.9829
G0 F2625 X122.535 Y143.748
G1 F900 X105.464 Y126.677 E98.78708
G0 F2625 X105.464 Y125.97
G1 F900 X122.535 Y143.041 E99.59126
G0 F2625 X122.535 Y142.334
G1 F900 X105.464 Y125.263 E100.39544
G0 F2625 X105.464 Y124.556
G1 F900 X122.535 Y141.627 E101.19962
G0 F2625 X122.535 Y140.92
G1 F900 X105.464 Y123.849 E102.0038
G0 F2625 X105.464 Y123.141
G1 F900 X122.535 Y140.212 E102.80798
G0 F2625 X122.535 Y139.505
G1 F900 X105.464 Y122.434 E103.61216
G0 F2625 X105.464 Y121.727
G1 F900 X122.535 Y138.798 E104.41634
G0 F2625 X122.535 Y138.091
G1 F900 X105.464 Y121.02 E105.22052
G0 F2625 X105.464 Y120.313
G1 F900 X122.535 Y137.384 E106.0247
G0 F2625 X122.535 Y136.677
G1 F900 X105.464 Y119.606 E106.82888
G0 F2625 X105.464 Y118.899
G1 F900 X122.535 Y135.97 E107.63306
G0 F2625 X122.535 Y135.263
G1 F900 X105.464 Y118.192 E108.43724
G0 F2625 X105.464 Y117.485
G1 F900 X122.535 Y134.556 E109.24142
G0 F2625 X122.535 Y133.848
G1 F900 X105.464 Y116.777 E110.0456
G0 F2625 X105.464 Y116.07
G1 F900 X122.535 Y133.141 E110.84978
G0 F2625 X122.535 Y132.434
G1 F900 X105.464 Y115.363 E111.65396
G0 F2625 X105.464 Y114.656
G1 F900 X122.535 Y131.727 E112.45814
G0 F2625 X122.535 Y131.02
G1 F900 X105.464 Y113.949 E113.26232
G0 F2625 X105.464 Y113.242
G1 F900 X122.535 Y130.313 E114.0665
G0 F2625 X122.535 Y129.606
G1 F900 X105.464 Y112.535 E114.87068
G0 F2625 X105.464 Y111.828
G1 F900 X122.535 Y128.899 E115.67486
G0 F2625 X122.535 Y128.192
G1 F900 X105.464 Y111.121 E116.47904
G0 F2625 X105.464 Y110.414
G1 F900 X122.535 Y127.484 E117.2832
G0 F2625 X122.535 Y126.777
G1 F900 X105.464 Y109.706 E118.08738
G0 F2625 X105.464 Y108.999
G1 F900 X122.535 Y126.07 E118.89156
G0 F2625 X122.535 Y125.363
G1 F900 X105.464 Y108.292 E119.69574
G0 F2625 X105.464 Y107.585
G1 F900 X122.535 Y124.656 E120.49992
G0 F2625 X122.535 Y123.949
G1 F900 X105.464 Y106.878 E121.3041
G0 F2625 X105.464 Y106.171
G1 F900 X122.535 Y123.242 E122.10828
G0 F2625 X122.535 Y122.535
G1 F900 X105.464 Y105.464 E122.91246
G0 F2625 X105.464 Y104.757
G1 F900 X122.535 Y121.828 E123.71664
G0 F2625 X122.535 Y121.121
G1 F900 X105.464 Y104.05 E124.52082
G0 F2625 X105.464 Y103.342
G1 F900 X122.535 Y120.413 E125.325
G0 F2625 X122.535 Y119.706
G1 F900 X105.464 Y102.635 E126.12918
G0 F2625 X105.464 Y101.928
G1 F900 X122.535 Y118.999 E126.93336
G0 F2625 X122.535 Y118.292
G1 F900 X105.464 Y101.221 E127.73754
G0 F2625 X105.464 Y100.514
G1 F900 X122.535 Y117.585 E128.54172
G0 F2625 X122.535 Y116.878
G1 F900 X105.464 Y99.807 E129.3459
G0 F2625 X105.464 Y99.1
G1 F900 X122.535 Y116.171 E130.15008
G0 F2625 X122.535 Y115.464
G1 F900 X105.464 Y98.393 E130.95426
G0 F2625 X105.464 Y97.686
G1 F900 X122.535 Y114.757 E131.75844
G0 F2625 X122.535 Y114.049
G1 F900 X105.464 Y96.978 E132.56262
G0 F2625 X105.658 Y96.465
G1 F900 X122.535 Y113.342 E133.35766
G0 F2625 X122.535 Y112.635
G1 F900 X106.365 Y96.465 E134.11939
G0 F2625 X107.072 Y96.465
G1 F900 X122.535 Y111.928 E134.84782
G0 F2625 X122.535 Y111.221
G1 F900 X107.779 Y96.465 E135.54295
G0 F2625 X108.486 Y96.465
G1 F900 X122.535 Y110.514 E136.20477
G0 F2625 X122.535 Y109.807
G1 F900 X109.193 Y96.465 E136.83328
G0 F2625 X109.9 Y96.465
G1 F900 X122.535 Y109.1 E137.42849
G0 F2625 X122.535 Y108.393
G1 F900 X110.607 Y96.465 E137.9904
G0 F2625 X111.314 Y96.465
G1 F900 X122.535 Y107.685 E138.51897
G0 F2625 X122.535 Y106.978
G1 F900 X112.021 Y96.465 E139.01424
G0 F2625 X112.729 Y96.465
G1 F900 X122.535 Y106.271 E139.47618
G0 F2625 X122.535 Y105.564
G1 F900 X113.436 Y96.465 E139.90482
G0 F2625 X114.143 Y96.465
G1 F900 X122.535 Y104.857 E140.30015
G0 F2625 X122.535 Y104.15
G1 F900 X114.85 Y96.465 E140.66217
G0 F2625 X115.557 Y96.465
G1 F900 X122.535 Y103.443 E140.99089
G0 F2625 X122.535 Y102.736
G1 F900 X116.264 Y96.465 E141.2863
G0 F2625 X116.971 Y96.465
G1 F900 X122.535 Y102.029 E141.54841
G0 F2625 X122.535 Y101.322
G1 F900 X117.678 Y96.465 E141.77722
G0 F2625 X118.385 Y96.465
G1 F900 X122.535 Y100.614 E141.97269
G0 F2625 X122.535 Y99.907
M104 S205
G1 F900 X119.093 Y96.465 E142.13484
G0 F2625 X119.8 Y96.465
G1 F900 X122.535 Y99.2 E142.26368
G0 F2625 X122.535 Y98.493
G1 F900 X120.507 Y96.465 E142.35921
G0 F2625 X121.214 Y96.465
G1 F900 X122.535 Y97.786 E142.42144
G0 F2625 X122.535 Y97.079
G1 F900 X121.921 Y96.465 E142.45037
;MESH:NONMESH
G0 F2625 X123.18 Y194.18
G0 X123.25 Y194.25
;TIME_ELAPSED:311.875256
;LAYER:1
M140 S60
M106 S102
;MESH:
G0 F6562.5 X123.25 Y194.25 Z0.805
;TYPE:WALL-INNER
G1 F1500 X104.75 Y194.25 E143.00136
G1 X104.75 Y95.75 E145.93502
G1 X123.25 Y95.75 E146.48601
G1 X123.25 Y194.25 E149.41968
G0 F6562.5 X123.75 Y194.75
;TYPE:WALL-OUTER
G1 F1350 X104.25 Y194.75 E150.00045
G1 X104.25 Y95.25 E152.9639
G1 X123.75 Y95.25 E153.54468
G1 X123.75 Y194.75 E156.50812
G0 F6562.5 X123.5 Y194.75
G0 X123.18 Y194.18
G0 X122.76 Y193.76
;TYPE:SKIN
G1 F1350 X105.24 Y193.76 E157.02993
G1 X105.24 Y96.24 E159.9344
G1 X122.76 Y96.24 E160.45621
G1 X122.76 Y193.76 E163.36068
G0 F6562.5 X121.835 Y193.534
G1 F1350 X122.534 Y192.835 E163.39012
G0 F6562.5 X122.534 Y192.127
G1 F1350 X121.128 Y193.534 E163.44937
G0 F6562.5 X120.42 Y193.534
G1 F1350 X122.534 Y191.42 E163.53841
G0 F6562.5 X122.534 Y190.713
G1 F1350 X119.713 Y193.534 E163.65723
G0 F6562.5 X119.006 Y193.534
G1 F1350 X122.534 Y190.006 E163.80583
G0 F6562.5 X122.534 Y189.299
G1 F1350 X118.299 Y193.534 E163.98421
G0 F6562.5 X117.592 Y193.534
G1 F1350 X122.534 Y188.592 E164.19236
G0 F6562.5 X122.534 Y187.885
G1 F1350 X116.885 Y193.534 E164.4303
G0 F6562.5 X116.178 Y193.534
G1 F1350 X122.534 Y187.178 E164.69801
G0 F6562.5 X122.534 Y186.471
G1 F1350 X115.471 Y193.534 E164.99551
G0 F6562.5 X114.764 Y193.534
G1 F1350 X122.534 Y185.764 E165.32278
G0 F6562.5 X122.534 Y185.056
G1 F1350 X114.057 Y193.534 E165.67985
G0 F6562.5 X113.349 Y193.534
G1 F1350 X122.534 Y184.349 E166.06673
