;Generated by Cura LulzBot Edition GCodeWriter Version: 3.6.3
;FLAVOR:Marlin
;TIME:2052
;Filament used: 1.7032m
;Layer height: 0.38
;Generated with Cura_SteamEngine 3.6.3
M82 ;absolute extrusion mode
M221 S100
;This G-Code has been generated specifically for the LulzBot TAZ 6 with standard extruder
M73 P0 ; clear GLCD progress bar
M75 ; start GLCD timer
G26 ; clear potential 'probe fail' condition
M107 ; disable fans
M420 S0 ; disable previous leveling matrix
G90 ; absolute positioning
M82 ; set extruder to absolute mode
G92 E0 ; set extruder position to 0
M140 S60 ; start bed heating up
M109 R140 ; soften filament before homing Z
G28 ; Home all axis
G1 E-30 F100 ; retract filament
M109 R140 ; wait for extruder to reach wiping temp
G1 X-15 Y100 F3000 ; move above wiper pad
G1 Z1 ; push nozzle into wiper
G1 X-17 Y95 F1000 ; slow wipe
G1 X-17 Y90 F1000 ; slow wipe
G1 X-17 Y85 F1000 ; slow wipe
G1 X-15 Y90 F1000 ; slow wipe
G1 X-17 Y80 F1000 ; slow wipe
G1 X-15 Y95 F1000 ; slow wipe
G1 X-17 Y75 F2000 ; fast wipe
G1 X-15 Y65 F2000 ; fast wipe
G1 X-17 Y70 F2000 ; fast wipe
G1 X-15 Y60 F2000 ; fast wipe
G1 X-17 Y55 F2000 ; fast wipe
G1 X-15 Y50 F2000 ; fast wipe
G1 X-17 Y40 F2000 ; fast wipe
G1 X-15 Y45 F2000 ; fast wipe
G1 X-17 Y35 F2000 ; fast wipe
G1 X-15 Y40 F2000 ; fast wipe
G1 X-17 Y70 F2000 ; fast wipe
G1 X-15 Y30 Z2 F2000 ; fast wipe
G1 X-17 Y35 F2000 ; fast wipe
G1 X-15 Y25 F2000 ; fast wipe
G1 X-17 Y30 F2000 ; fast wipe
G1 X-15 Y25 Z1.5 F1000 ; slow wipe
G1 X-17 Y23 F1000 ; slow wipe
G1 Z10 ; raise extruder
M109 R140 ; wait for extruder to reach probe temp
G1 X-9 Y-9 ; move above first probe point
M204 S100 ; set probing acceleration
G29 ; start auto-leveling sequence
M420 S1 ; activate bed level matrix
M425 Z			     ; use measured Z backlash for compensation
M425 Z F0		     ; turn off measured Z backlash compensation. (if activated in the quality settings, this command will automatically be ignored)
M204 S500 ; restore standard acceleration
G1 X0 Y0 Z15 F5000 ; move up off last probe point
G4 S1 ; pause
M400 ; wait for moves to finish
M117 Heating... ; progress indicator message on LCD
M109 R210 ; wait for extruder to reach printing temp
M190 S60 ; wait for bed to reach printing temp
G1 Z2 E0 F75 ; prime tiny bit of filament into the nozzle
M117 TAZ 6 Printing... ; progress indicator message on LCD

G92 E0
G1 F600 E-1
;LAYER_COUNT:53
;LAYER:0
M107
G0 F2625 X127.216 Y100.007 Z0.425
;TYPE:SKIRT
G1 F600 E0
G1 F900 X127.61 Y99.627 E0.01823
G1 X128.055 Y99.308 E0.03647
G1 X128.542 Y99.058 E0.05471
G1 X129.06 Y98.881 E0.07294
G1 X129.598 Y98.782 E0.09116
G1 X130.009 Y98.759 E0.10487
G1 X149.991 Y98.76 E0.77048
G1 X150.537 Y98.8 E0.78872
G1 X151.071 Y98.919 E0.80694
G1 X151.583 Y99.115 E0.8252
G1 X152.06 Y99.382 E0.84341
G1 X152.493 Y99.717 E0.86165
G1 X152.873 Y100.111 E0.87988
G1 X153.192 Y100.556 E0.89812
G1 X153.442 Y101.043 E0.91636
G1 X153.619 Y101.561 E0.93459
G1 X153.718 Y102.099 E0.95281
G1 X153.741 Y102.51 E0.96652
G1 X153.741 Y177.491 E3.46417
G1 X153.701 Y178.037 E3.48241
G1 X153.582 Y178.571 E3.50063
G1 X153.387 Y179.082 E3.51885
G1 X153.119 Y179.56 E3.5371
G1 X152.784 Y179.993 E3.55534
G1 X152.39 Y180.373 E3.57357
G1 X151.945 Y180.692 E3.59181
G1 X151.458 Y180.942 E3.61005
G1 X150.94 Y181.119 E3.62828
G1 X150.402 Y181.218 E3.6465
G1 X149.991 Y181.241 E3.66021
G1 X130.009 Y181.241 E4.32582
G1 X129.463 Y181.201 E4.34406
G1 X128.929 Y181.082 E4.36228
G1 X128.418 Y180.887 E4.3805
G1 X127.94 Y180.619 E4.39875
G1 X127.507 Y180.284 E4.41699
G1 X127.127 Y179.89 E4.43522
G1 X126.808 Y179.445 E4.45346
G1 X126.558 Y178.958 E4.4717
G1 X126.381 Y178.44 E4.48993
G1 X126.282 Y177.902 E4.50815
G1 X126.259 Y177.491 E4.52187
G1 X126.259 Y102.509 E7.01954
G1 X126.299 Y101.963 E7.03778
G1 X126.418 Y101.429 E7.056
G1 X126.613 Y100.918 E7.07422
G1 X126.881 Y100.44 E7.09248
G1 X127.216 Y100.007 E7.11071
G0 F2625 X127.709 Y100.213
G1 F900 X128.096 Y99.881 E7.1277
G1 X128.531 Y99.615 E7.14468
G1 X129.001 Y99.419 E7.16164
G1 X129.496 Y99.3 E7.1786
G1 X130.009 Y99.259 E7.19575
G1 X149.991 Y99.26 E7.86135
G1 X150.499 Y99.3 E7.87833
G1 X150.995 Y99.419 E7.89532
G1 X151.465 Y99.614 E7.91227
G1 X151.9 Y99.88 E7.92925
G1 X152.288 Y100.21 E7.94622
G1 X152.619 Y100.598 E7.96321
G1 X152.885 Y101.032 E7.98016
G1 X153.081 Y101.502 E7.99713
G1 X153.2 Y101.998 E8.01412
G1 X153.241 Y102.51 E8.03123
G1 X153.241 Y177.491 E10.52887
G1 X153.201 Y177.999 E10.54584
G1 X153.082 Y178.494 E10.5628
G1 X152.887 Y178.965 E10.57978
G1 X152.621 Y179.4 E10.59677
G1 X152.291 Y179.787 E10.61371
G1 X151.904 Y180.119 E10.63069
G1 X151.469 Y180.385 E10.64768
G1 X150.999 Y180.581 E10.66464
G1 X150.504 Y180.7 E10.6816
G1 X149.991 Y180.741 E10.69874
G1 X130.009 Y180.741 E11.36435
G1 X129.501 Y180.701 E11.38132
G1 X129.006 Y180.582 E11.39828
G1 X128.535 Y180.387 E11.41526
G1 X128.1 Y180.121 E11.43225
G1 X127.713 Y179.791 E11.44919
G1 X127.381 Y179.404 E11.46617
G1 X127.115 Y178.969 E11.48316
G1 X126.919 Y178.499 E11.50012
G1 X126.8 Y178.004 E11.51708
G1 X126.759 Y177.491 E11.53422
G1 X126.759 Y102.509 E14.0319
G1 X126.799 Y102.001 E14.04887
G1 X126.918 Y101.506 E14.06583
G1 X127.113 Y101.035 E14.08281
G1 X127.379 Y100.6 E14.0998
G1 X127.709 Y100.213 E14.11674
G1 F600 E13.11674
;MESH:
G0 F2625 X129.335 Y103.264
G0 X130.764 Y103.264
G0 X149.18 Y176.68
G0 X149.25 Y176.75
;TYPE:WALL-INNER
G1 F600 E14.11674
G1 F900 X130.75 Y176.75 E14.73298
G1 X130.75 Y103.25 E17.18129
G1 X149.25 Y103.25 E17.79753
G1 X149.25 Y176.75 E20.24584
G0 F2625 X149.75 Y177.25
;TYPE:WALL-OUTER
G1 F900 X130.25 Y177.25 E20.8954
G1 X130.25 Y102.75 E23.37702
G1 X149.75 Y102.75 E24.02657
G1 X149.75 Y177.25 E26.50819
G0 F2625 X149.5 Y177.25
G0 X149.18 Y176.68
G0 X148.76 Y176.26
;TYPE:SKIN
G1 F900 X131.24 Y176.26 E27.09179
G1 X131.24 Y103.74 E29.50746
G1 X148.76 Y103.74 E30.09105
G1 X148.76 Y176.26 E32.50672
G0 F2625 X132.193 Y176.034
G1 F900 X131.464 Y175.305 E32.54106
G0 F2625 X131.464 Y174.598
G1 F900 X132.9 Y176.034 E32.60871
G0 F2625 X133.607 Y176.034
G1 F900 X131.464 Y173.89 E32.70969
G0 F2625 X131.464 Y173.183
G1 F900 X134.314 Y176.034 E32.84397
G0 F2625 X135.022 Y176.034
G1 F900 X131.464 Y172.476 E33.01158
G0 F2625 X131.464 Y171.769
G1 F900 X135.729 Y176.034 E33.21249
G0 F2625 X136.436 Y176.034
G1 F900 X131.464 Y171.062 E33.44671
G0 F2625 X131.464 Y170.355
G1 F900 X137.143 Y176.034 E33.71424
G0 F2625 X137.85 Y176.034
G1 F900 X131.464 Y169.648 E34.01507
G0 F2625 X131.464 Y168.941
G1 F900 X138.557 Y176.034 E34.34921
G0 F2625 X139.264 Y176.034
G1 F900 X131.464 Y168.234 E34.71665
G0 F2625 X131.464 Y167.527
G1 F900 X139.971 Y176.034 E35.1174
G0 F2625 X140.678 Y176.034
G1 F900 X131.464 Y166.819 E35.55147
G0 F2625 X131.464 Y166.112
G1 F900 X141.386 Y176.034 E36.01888
G0 F2625 X142.093 Y176.034
G1 F900 X131.464 Y165.405 E36.51959
G0 F2625 X131.464 Y164.698
G1 F900 X142.8 Y176.034 E37.05361
G0 F2625 X143.507 Y176.034
G1 F900 X131.464 Y163.991 E37.62093
G0 F2625 X131.464 Y163.284
G1 F900 X144.214 Y176.034 E38.22155
G0 F2625 X144.921 Y176.034
G1 F900 X131.464 Y162.577 E38.85549
G0 F2625 X131.464 Y161.87
G1 F900 X145.628 Y176.034 E39.52272
G0 F2625 X146.335 Y176.034
G1 F900 X131.464 Y161.163 E40.22327
G0 F2625 X131.464 Y160.455
G1 F900 X147.042 Y176.034 E40.95714
G0 F2625 X147.749 Y176.034
G1 F900 X131.464 Y159.748 E41.72431
G0 F2625 X131.464 Y159.041
G1 F900 X148.457 Y176.034 E42.52482
G0 F2625 X148.534 Y175.404
G1 F900 X131.464 Y158.334 E43.32895
G0 F2625 X131.464 Y157.627
G1 F900 X148.534 Y174.697 E44.13309
G0 F2625 X148.534 Y173.99
G1 F900 X131.464 Y156.92 E44.93722
G0 F2625 X131.464 Y156.213
G1 F900 X148.534 Y173.283 E45.74135
G0 F2625 X148.534 Y172.576
G1 F900 X131.464 Y155.506 E46.54548
G0 F2625 X131.464 Y154.799
G1 F900 X148.534 Y171.869 E47.34962
G0 F2625 X148.534 Y171.162
G1 F900 X131.464 Y154.092 E48.15375
G0 F2625 X131.464 Y153.384
G1 F900 X148.534 Y170.455 E48.95791
G0 F2625 X148.534 Y169.748
G1 F900 X131.464 Y152.677 E49.76206
G0 F2625 X131.464 Y151.97
G1 F900 X148.534 Y169.04 E50.5662
G0 F2625 X148.534 Y168.333
G1 F900 X131.464 Y151.263 E51.37033
G0 F2625 X131.464 Y150.556
G1 F900 X148.534 Y167.626 E52.17446
G0 F2625 X148.534 Y166.919
G1 F900 X131.464 Y149.849 E52.97859
G0 F2625 X131.464 Y149.142
G1 F900 X148.534 Y166.212 E53.78273
G0 F2625 X148.534 Y165.505
G1 F900 X131.464 Y148.435 E54.58686
G0 F2625 X131.464 Y147.728
G1 F900 X148.534 Y164.798 E55.39099
G0 F2625 X148.534 Y164.091
G1 F900 X131.464 Y147.02 E56.19515
G0 F2625 X131.464 Y146.313
G1 F900 X148.534 Y163.384 E56.99931
G0 F2625 X148.534 Y162.676
G1 F900 X131.464 Y145.606 E57.80344
G0 F2625 X131.464 Y144.899
G1 F900 X148.534 Y161.969 E58.60757
G0 F2625 X148.534 Y161.262
G1 F900 X131.464 Y144.192 E59.41171
G0 F2625 X131.464 Y143.485
G1 F900 X148.534 Y160.555 E60.21584
G0 F2625 X148.534 Y159.848
G1 F900 X131.464 Y142.778 E61.01997
G0 F2625 X131.464 Y142.071
G1 F900 X148.534 Y159.141 E61.8241
G0 F2625 X148.534 Y158.434
G1 F900 X131.464 Y141.364 E62.62824
G0 F2625 X131.464 Y140.656
G1 F900 X148.534 Y157.727 E63.43239
G0 F2625 X148.534 Y157.02
G1 F900 X131.464 Y139.949 E64.23655
G0 F2625 X131.464 Y139.242
G1 F900 X148.534 Y156.313 E65.04071
G0 F2625 X148.534 Y155.605
G1 F900 X131.464 Y138.535 E65.84484
G0 F2625 X131.464 Y137.828
G1 F900 X148.534 Y154.898 E66.64897
G0 F2625 X148.534 Y154.191
G1 F900 X131.464 Y137.121 E67.45311
G0 F2625 X131.464 Y136.414
G1 F900 X148.534 Y153.484 E68.25724
G0 F2625 X148.534 Y152.777
G1 F900 X131.464 Y135.707 E69.06137
G0 F2625 X131.464 Y135
G1 F900 X148.534 Y152.07 E69.8655
G0 F2625 X148.534 Y151.363
G1 F900 X131.464 Y134.293 E70.66964
G0 F2625 X131.464 Y133.585
G1 F900 X148.534 Y150.656 E71.47379
G0 F2625 X148.534 Y149.949
G1 F900 X131.464 Y132.878 E72.27795
G0 F2625 X131.464 Y132.171
G1 F900 X148.534 Y149.241 E73.08208
G0 F2625 X148.534 Y148.534
G1 F900 X131.464 Y131.464 E73.88622
G0 F2625 X131.464 Y130.757
G1 F900 X148.534 Y147.827 E74.69035
G0 F2625 X148.534 Y147.12
G1 F900 X131.464 Y130.05 E75.49448
G0 F2625 X131.464 Y129.343
G1 F900 X148.534 Y146.413 E76.29861
G0 F2625 X148.534 Y145.706
G1 F900 X131.464 Y128.636 E77.10275
G0 F2625 X131.464 Y127.929
G1 F900 X148.534 Y144.999 E77.90688
G0 F2625 X148.534 Y144.292
G1 F900 X131.464 Y127.221 E78.71104
G0 F2625 X131.464 Y126.514
G1 F900 X148.534 Y143.585 E79.51519
G0 F2625 X148.534 Y142.877
G1 F900 X131.464 Y125.807 E80.31933
G0 F2625 X131.464 Y125.1
G1 F900 X148.534 Y142.17 E81.12346
G0 F2625 X148.534 Y141.463
G1 F900 X131.464 Y124.393 E81.92759
G0 F2625 X131.464 Y123.686
G1 F900 X148.534 Y140.756 E82.73173
G0 F2625 X148.534 Y140.049
G1 F900 X131.464 Y122.979 E83.53586
G0 F2625 X131.464 Y122.272
G1 F900 X148.534 Y139.342 E84.33999
G0 F2625 X148.534 Y138.635
G1 F900 X131.464 Y121.565 E85.14412
G0 F2625 X131.464 Y120.857
G1 F900 X148.534 Y137.928 E85.94828
G0 F2625 X148.534 Y137.221
G1 F900 X131.464 Y120.15 E86.75244
G0 F2625 X131.464 Y119.443
G1 F900 X148.534 Y136.514 E87.55659
G0 F2625 X148.534 Y135.806
G1 F900 X131.464 Y118.736 E88.36073
G0 F2625 X131.464 Y118.029
G1 F900 X148.534 Y135.099 E89.16486
G0 F2625 X148.534 Y134.392
G1 F900 X131.464 Y117.322 E89.96899
G0 F2625 X131.464 Y116.615
G1 F900 X148.534 Y133.685 E90.77313
G0 F2625 X148.534 Y132.978
G1 F900 X131.464 Y115.908 E91.57726
G0 F2625 X131.464 Y115.201
G1 F900 X148.534 Y132.271 E92.38139
G0 F2625 X148.534 Y131.564
G1 F900 X131.464 Y114.494 E93.18552
G0 F2625 X131.464 Y113.786
G1 F900 X148.534 Y130.857 E93.98968
G0 F2625 X148.534 Y130.15
G1 F900 X131.464 Y113.079 E94.79384
G0 F2625 X131.464 Y112.372
G1 F900 X148.534 Y129.442 E95.59797
G0 F2625 X148.534 Y128.735
G1 F900 X131.464 Y111.665 E96.4021
G0 F2625 X131.464 Y110.958
G1 F900 X148.534 Y128.028 E97.20624
G0 F2625 X148.534 Y127.321
G1 F900 X131.464 Y110.251 E98.01037
G0 F2625 X131.464 Y109.544
G1 F900 X148.534 Y126.614 E98.8145
G0 F2625 X148.534 Y125.907
G1 F900 X131.464 Y108.837 E99.61863
G0 F2625 X131.464 Y108.13
G1 F900 X148.534 Y125.2 E100.42277
G0 F2625 X148.534 Y124.493
G1 F900 X131.464 Y107.422 E101.22692
G0 F2625 X131.464 Y106.715
G1 F900 X148.534 Y123.786 E102.03108
G0 F2625 X148.534 Y123.079
G1 F900 X131.464 Y106.008 E102.83524
G0 F2625 X131.464 Y105.301
G1 F900 X148.534 Y122.371 E103.63937
G0 F2625 X148.534 Y121.664
G1 F900 X131.464 Y104.594 E104.4435
G0 F2625 X131.542 Y103.965
G1 F900 X148.534 Y120.957 E105.24396
G0 F2625 X148.534 Y120.25
G1 F900 X132.249 Y103.965 E106.01111
G0 F2625 X132.956 Y103.965
G1 F900 X148.534 Y119.543 E106.74496
G0 F2625 X148.534 Y118.836
G1 F900 X133.663 Y103.965 E107.44551
G0 F2625 X134.37 Y103.965
G1 F900 X148.534 Y118.129 E108.11274
G0 F2625 X148.534 Y117.422
G1 F900 X135.077 Y103.965 E108.74667
G0 F2625 X135.785 Y103.965
G1 F900 X148.534 Y116.715 E109.34728
G0 F2625 X148.534 Y116.007
G1 F900 X136.492 Y103.965 E109.91455
G0 F2625 X137.199 Y103.965
G1 F900 X148.534 Y115.3 E110.44852
G0 F2625 X148.534 Y114.593
G1 F900 X137.906 Y103.965 E110.94918
G0 F2625 X138.613 Y103.965
G1 F900 X148.534 Y113.886 E111.41654
G0 F2625 X148.534 Y113.179
G1 F900 X139.32 Y103.965 E111.85059
G0 F2625 X140.027 Y103.965
G1 F900 X148.534 Y112.472 E112.25134
G0 F2625 X148.534 Y111.765
G1 F900 X140.734 Y103.965 E112.61878
G0 F2625 X141.441 Y103.965
G1 F900 X148.534 Y111.058 E112.95292
G0 F2625 X148.534 Y110.351
G1 F900 X142.148 Y103.965 E113.25375
G0 F2625 X142.856 Y103.965
G1 F900 X148.534 Y109.643 E113.52123
G0 F2625 X148.534 Y108.936
G1 F900 X143.563 Y103.965 E113.7554
G0 F2625 X144.27 Y103.965
G1 F900 X148.534 Y108.229 E113.95627
G0 F2625 X148.534 Y107.522
M104 S205
G1 F900 X144.977 Y103.965 E114.12384
G0 F2625 X145.684 Y103.965
G1 F900 X148.534 Y106.815 E114.25809
G0 F2625 X148.534 Y106.108
G1 F900 X146.391 Y103.965 E114.35905
G0 F2625 X147.098 Y103.965
G1 F900 X148.534 Y105.401 E114.42669
G0 F2625 X148.534 Y104.694
G1 F900 X147.805 Y103.965 E114.46104
G1 X147.717 Y103.877
;MESH:NONMESH
G0 F2625 X149.18 Y176.68
G0 X149.25 Y176.75
;TIME_ELAPSED:253.013124
;LAYER:1
M140 S60
M106 S102
;MESH:
G0 F6562.5 X149.25 Y176.75 Z0.805
;TYPE:WALL-INNER
G1 F1500 X130.75 Y176.75 E115.01203
G1 X130.75 Y103.25 E117.20111
G1 X149.25 Y103.25 E117.7521
G1 X149.25 Y176.75 E119.94118
G0 F6562.5 X149.75 Y177.25
;TYPE:WALL-OUTER
G1 F1350 X130.25 Y177.25 E120.52195
G1 X130.25 Y102.75 E122.74082
G1 X149.75 Y102.75 E123.32159
G1 X149.75 Y177.25 E125.54045
G0 F6562.5 X149.5 Y177.25
G0 X149.18 Y176.68
G0 X148.76 Y176.26
;TYPE:SKIN
G1 F1350 X131.24 Y176.26 E126.06226
G1 X131.24 Y103.74 E128.22215
G1 X148.76 Y103.74 E128.74395
G1 X148.76 Y176.26 E130.90384
G0 F6562.5 X147.82 Y176.034
G1 F1350 X148.534 Y175.32 E130.93392
G0 F6562.5 X148.534 Y174.613
G1 F1350 X147.113 Y176.034 E130.99377
G0 F6562.5 X146.406 Y176.034
G1 F1350 X148.534 Y173.906 E131.0834
G0 F6562.5 X148.534 Y173.199
G1 F1350 X145.699 Y176.034 E131.20281
G0 F6562.5 X144.992 Y176.034
G1 F1350 X148.534 Y172.492 E131.352
G0 F6562.5 X148.534 Y171.785
G1 F1350 X144.285 Y176.034 E131.53097
G0 F6562.5 X143.578 Y176.034
G1 F1350 X148.534 Y171.078 E131.73972
G0 F6562.5 X148.534 Y170.371
G1 F1350 X142.87 Y176.034 E131.97826
G0 F6562.5 X142.163 Y176.034
G1 F1350 X148.534 Y169.663 E132.24661
G0 F6562.5 X148.534 Y168.956
G1 F1350 X141.456 Y176.034 E132.54474
G0 F6562.5 X140.749 Y176.034
G1 F1350 X148.534 Y168.249 E132.87264
G0 F6562.5 X148.534 Y167.542
G1 F1350 X140.042 Y176.034 E133.23032
G0 F6562.5 X139.335 Y176.034
G1 F1350 X148.534 Y166.835 E133.61779
G0 F6562.5 X148.534 Y166.128
G1 F1350 X138.628 Y176.034 E134.03503
G0 F6562.5 X137.921 Y176.034
G1 F1350 X148.534 Y165.421 E134.48205
G0 F6562.5 X148.534 Y164.714
G1 F1350 X137.214 Y176.034 E134.95885
G0 F6562.5 X136.506 Y176.034
G1 F1350 X148.534 Y164.007 E135.46545
G0 F6562.5 X148.534 Y163.299
G1 F1350 X135.799 Y176.034 E136.00185
G0 F6562.5 X135.092 Y176.034
G1 F1350 X148.534 Y162.592 E136.56802
G0 F6562.5 X148.534 Y161.885
G1 F1350 X134.385 Y176.034 E137.16398
G0 F6562.5 X133.678 Y176.034
G1 F1350 X148.534 Y161.178 E137.78972
G0 F6562.5 X148.534 Y160.471
G1 F1350 X132.971 Y176.034 E138.44523
G0 F6562.5 X132.264 Y176.034
G1 F1350 X148.534 Y159.764 E139.13052
G0 F6562.5 X148.534 Y159.057
G1 F1350 X131.557 Y176.034 E139.8456
